static/img/menus/ico-camera-ok.svg

<svg width="23" height="20" viewBox="0 0 23 20" fill="none" xmlns="http://www.w3.org/2000/svg">
<path d="M7 8.49995V6.99995C6.98062 6.86412 6.99312 6.72564 7.03653 6.59547C7.07993 6.4653 7.15303 6.34703 7.25005 6.25001C7.34708 6.15298 7.46535 6.07988 7.59552 6.03648C7.72568 5.99308 7.86417 5.98057 8 5.99995H16C16.1358 5.98057 16.2743 5.99308 16.4045 6.03648C16.5346 6.07988 16.6529 6.15298 16.7499 6.25001C16.847 6.34703 16.9201 6.4653 16.9635 6.59547C17.0069 6.72564 17.0194 6.86412 17 6.99995V13C17.0194 13.1358 17.0069 13.2743 16.9635 13.4044C16.9201 13.5346 16.847 13.6529 16.7499 13.7499C16.6529 13.8469 16.5346 13.92 16.4045 13.9634C16.2743 14.0068 16.1358 14.0193 16 14H8C7.86417 14.0193 7.72568 14.0068 7.59552 13.9634C7.46535 13.92 7.34708 13.8469 7.25005 13.7499C7.15303 13.6529 7.07993 13.5346 7.03653 13.4044C6.99312 13.2743 6.98062 13.1358 7 13V11.5L3 13.5V6.49995L7 8.49995V11.5Z" fill="#3974FF"/>
<path d="M7 8.49995V6.99995C6.98062 6.86412 6.99312 6.72564 7.03653 6.59547C7.07993 6.4653 7.15303 6.34703 7.25005 6.25001C7.34708 6.15298 7.46535 6.07988 7.59552 6.03648C7.72568 5.99308 7.86417 5.98057 8 5.99995H16C16.1358 5.98057 16.2743 5.99308 16.4045 6.03648C16.5346 6.07988 16.6529 6.15298 16.7499 6.25001C16.847 6.34703 16.9201 6.4653 16.9635 6.59547C17.0069 6.72564 17.0194 6.86412 17 6.99995V13C17.0194 13.1358 17.0069 13.2743 16.9635 13.4044C16.9201 13.5346 16.847 13.6529 16.7499 13.7499C16.6529 13.8469 16.5346 13.92 16.4045 13.9634C16.2743 14.0068 16.1358 14.0193 16 14H8C7.86417 14.0193 7.72568 14.0068 7.59552 13.9634C7.46535 13.92 7.34708 13.8469 7.25005 13.7499C7.15303 13.6529 7.07993 13.5346 7.03653 13.4044C6.99312 13.2743 6.98062 13.1358 7 13V11.5M7 8.49995L3 6.49995V13.5L7 11.5M7 8.49995V11.5" stroke="currentColor" stroke-linecap="round" stroke-linejoin="round"/>
<path d="M17 9C18.6569 9 20 7.65685 20 6C20 4.34315 18.6569 3 17 3C15.3431 3 14 4.34315 14 6C14 7.65685 15.3431 9 17 9Z" fill="#1CFF59"/>
<path d="M17 9.5C18.933 9.5 20.5 7.933 20.5 6C20.5 4.067 18.933 2.5 17 2.5C15.067 2.5 13.5 4.067 13.5 6C13.5 7.933 15.067 9.5 17 9.5Z" stroke="currentColor"/>
</svg>

<svg xmlns="http://www.w3.org/2000/svg" width="23" height="20" fill="none" viewBox="0 0 23 20"><path fill="#3974ff" d="M7 8.5V7a.884.884 0 0 1 1-1h8a.884.884 0 0 1 1 1v6a.883.883 0 0 1-1 1H8a.885.885 0 0 1-1-1v-1.5l-4 2v-7zv3Z"/><path stroke="currentColor" stroke-linecap="round" stroke-linejoin="round" d="M7 8.5V7a.884.884 0 0 1 1-1h8a.884.884 0 0 1 1 1v6a.883.883 0 0 1-1 1H8a.885.885 0 0 1-1-1v-1.5m0-3-4-2v7l4-2m0-3v3"/><path fill="#1cff59" d="M17 9a3 3 0 1 0 0-6 3 3 0 0 0 0 6"/><path stroke="currentColor" d="M17 9.5a3.5 3.5 0 1 0 0-7 3.5 3.5 0 0 0 0 7Z"/></svg>
